X:133
T:Rondo. RHu.133
S:R.Hughes MS,1823,Whitchurch,Shrops.
A:Whitchurch, Shropshire
Z:Tony Weatherall 2006
M:2/4
L:1/8
Q:1/4=100
R:Air
K:G
B>cdd|e>g d2|e>gd2|cc Bz|!
cc Bz|cBcB|A/G/F/E/ D/c/B/A/|B>cdd|!
e>gd2|e>gd2|”allegro”ccBz|ccBz|!
dg e/g/e/c/|BAG2||ee/f/ {a}gf/e/|{^a}b{a}bb2|!
ee/f/ {a}gf/e/|f{^a}bB2|ee/f/ {a}gf/e/|{a}b{a}b {a}ba|!
{a}gf/e/ ga|{a}b2B2|gg/a/ {a}ba/g/|d’d’d2|!
gg/f/ g>a|{g}fe/f/d2|eg dg|egd2|!
ea g/f/e/d/|g2G2|ee/f/ gf/e/|{a}b{a}bb2|!
ee/f/ gf/e/|fb B2|ee/f/ gf/e/|bb b>a|!
gf/e/ fe/^d/|e2b/B/b/B/|a/B/a/B/ f/B/f/B/|g2b/B/b/B/|!
a/B/a/B/ f/B/f/B/|g2 za|zg za|gz gz|g2z2||

